X: 1
T: Satumaa
C: Unto Mononen 1952
Z: John Chambers <jc@trillian.mit.edu>
R: tango
%%staffsep 40
M: C
L: 1/4
K: Dm
d//d//d/d/ \
| "Gm"d/B//B//B/G/ d/B//B//B/G/ | "Dm"d/A//A//A/F/ d/A//A//A/F/ \
| "Gm"G/^F/G/B/ "A7"A/B/=B/^c/ | "Dm"d "A7"A "Dm"d z ||
%%sep 5 5 5
"S"\
[| "Dm"A>B A"Gm"G | "Dm"F>G F"A7"E \
| "Dm"D>E D"D7"C | "Gm"B,3 z \
| "A7"A,>=B, ^CA, | "Dm"D>E FD \
| "Gm"G>A "C7"BG | "F"A2- "A7"A2 ||
|| "Dm"A>B A"Gm"G | "Dm"F>G F"A7"E \
| "Dm"D>E D"D7"C | "Gm"B,3 z \
| "A7"A,>=B, ^CA, | "Dm"D>E F"Gm"G \
| "Dm"A>F "A7"EA, | "Dm"D3 "A7"A, ||
|| "Dm"A,>D DF | F>A AF \
| "Gm"A>G G"E7"F | "A"E3 A, \
| "A7"A,>^C CE | E>G "Gm"GB \
| "A7"B>A AG | "Dm"F3 A, ||
|| "Dm"A,>D DF | F>A Ac \
| "Cm"c>B "D7"BA | "Gm"G3 D \
| "Gm"D>G GB | "Dm"A>F FD \
| "Gm"G>F "A7"FE | "Dm"D2 "A7"A "Dm"Hd/ A,/D/F/ ||
|: "Dm"A/F//F//F/D/ A/F//F//F/D/ | "A7"G/F/E/z/ z/A,/^C/E/ \
| G/E//E//E/^C/ G/E//E//E/^C/ | "Dm"D/E/F/z/ z/d//d//d/d/ |
| "Gm"d/B//B//B/G/ d/B//B//B/G/ | "Dm"d/A//A//A/F/ d/A//A//A/F/ \
|1 "Gm"(3GGG "E7"(3^GFE | "A7"A2 z/A,/D/F/ :|
|2 "Gm"G/^F/G/B/ "A7"A/B/=B/^c/ | "Dm"d "A7"A "Dm"d z \
|| "Dm/A"(3A^GA "E/G#"=B2 | "A7/G"(3^c^Bc "Dm/F"d2 \
| "A/E"(3e^de "E7"fe | "A7"a3 "d.S."z |]
